!!!!SEGMENT: pl-kk--kk-i-10--008-002_pekiel-bartlomiej--missa-et-in-terra.krn
!!!cenid: 16xx:1196
!!!COM: Pękiel, Bartłomiej
!!!COM-rismID:
!!!CDT: <1633-~1670
!!!CNT: Polish
!!!OPR: Missa
!!!OTL: Et in terra
!!!OMV: 002
!!!PDT:
!!!AGN: Sacred; Mass
!!!SMS-siglum: PL-Kk
!!!SMS-shelfmark: Kk.I.10
!!!SMS-shelfwork: 008-002 M
!!!SMS-variant:
!!!SMS-altvar:
!!!NIFC-rismSourceID: 1001153818
!!!NIFC-islandoraID: pl-kk:2434
!!!URL-pdf-islandora: https://repozytorium.nifc.pl/islandora/object/pl-kk%3A2434/datastream/PDF/view
!!!URL-scan: https://polish.musicsources.pl/pl/lokalizacje/galeria/rekopisy/5737 @EN{Scan on Polish Music Herritage in Open Access Website} @PL{Skany w portalu Dziedzictwo Muzyki Polskiej w otwartym dostępie}
!!!ONB-nifc: UWAGA: części Mszy: 1. Kyrie, 2. Et in terra, 3. Patrem, 4. Sanctus, 5. Benedictus, 6. Agnus Dei. T1 (0015-0019), T2 (0065-0069), B (0114-0118).
!!!AIN: 1 bass 1 empty 1 tenor
!!!key:
**kern	**text	**kern	**text	**kern	**text
*part3	*part3	*part2	*part2	*part1	*part1
*staff3	*staff3	*staff2	*staff2	*staff1	*staff1
*Ibass	*	*Itenor	*	*Iempty	*
*I"Bassus.	*	*I"2do Tenore	*	*I"Primus	*
*I'B	*	*I'T 2	*	*I'T 1	*
*clefF4	*	*clefC4	*	*clefC4	*
*k[]	*	*k[]	*	*k[]	*
*G:	*	*G:	*	*G:	*
*M2/1	*	*M2/1	*	*M2/1	*
*met(C)	*	*met(C)	*	*met(C)	*
=1-	=1-	=1-	=1-	=1-	=1-
*2\right	*	*2\right	*	*2\right	*
2.G\	Et	2.B\	Et	2.d\	Et
4G\	in	4B\	in	4d\	in
2A\	ter-	2A/	ter-	2c\	ter-
2F\	-ra	2A/	-ra	2d\	-ra
=2-	=2-	=2-	=2-	=2-	=2-
2E\	pax	1.G	pax	2B\	pax
*	*ij	*	*	*	*
4C/	Et	.	.	1c	ho-
4D/	in	.	.	.	.
4E\	ter-	.	.	.	.
4F\	-ra	.	.	.	.
1G\	pax	1G/	ho-	4B\	.
*	*Xij	*	*	*	*
.	.	.	.	4A\	.
=3-	=3-	=3-	=3-	=3-	=3-
.	.	.	.	4B\	.
.	.	.	.	4c\	.
2F\	ho-	2A/	.	2.d\	.
2.A\	-mi-	2.A/	-mi-	.	.
!	!	!	!	!LO:TX:t=P:problem=♯ above	!
.	.	.	.	8c#X\L	.
.	.	.	.	8B\J	.
.	.	.	.	4.c#\	mi-
4AA/	-ni-	4A/	-ni-	.	.
.	.	.	.	8c#\	-ni-
=4-	=4-	=4-	=4-	=4-	=4-
!LO:LB:g=original	!	!	!	!	!
1D	-bus	2A,</	-bus	1d	-bus
.	.	2.d\	Bo-	.	.
2.G\	Bo-	.	.	1r	.
.	.	4c\	.	.	.
.	.	(4B\	-ne	.	.
4F\	.	4A/)	.	.	.
=5-	=5-	=5-	=5-	=5-	=5-
4E\	.	1.G	vo-	4g\	Bo-
4D\	nae	.	.	4f\	-nae
1C	vo-	.	.	4e\	vo-
*	*	*	*	*custos:c	*
.	.	.	.	4d\	-lun-
!	!	!	!	!LO:LB:g=original	!
.	.	.	.	2cny\	-ta-
!	!	!	!	!LO:TX:t=P:problem=korekta pauzy na kropkę	!
!	!	!	!	!LO:TX:b:B:t=punct	!
2BB/	-lun-	2B\	-lun-	2.d\	-tis
=6-	=6-	=6-	=6-	=6-	=6-
1D	-ta-	1A	-ta-	.	.
.	.	.	.	4A/	Lau-
.	.	.	.	4.d\	-da-
.	.	.	.	8c\	-mus
4GG/	-tis	4G,/	-tis	4B\	te
*	*	*	*	*	*ij
4GG/	Lau-	4B\	Lau-	4B\	lau-
!	!	!LO:PB:g=original	!	!	!
4.C/	-da-	4.e\	-da-	4.c\	-da-
8BB/	-mus	8d\	-mus	8G/	-mus
=7-	=7-	=7-	=7-	=7-	=7-
4AA/	te	4c\	te	4A,/	te
*	*	*	*	*	*Xij
2A\	Be-	8.c\	Be-	8.A/	Be-
.	.	16c\	-ne-	16A/	-ne-
.	.	4B\	-di-	4E/	-di-
4G#X\	-ne-	8B\	-ci-	8E/	-ci-
.	.	8B\	-mus	8E/	-mus
4A\	-di-	4A/	te	4c\	te
4AA/	-ci-	2A/	A-	8.c\	Be-
.	.	.	.	16c\	-ne-
2E\	-mus	.	.	4B\	-di-
.	.	4G#X/	-do-	8B\	-ci-
*	*	*	*	*custos:A	*
.	.	.	.	8B\	-mus
=8-	=8-	=8-	=8-	=8-	=8-
!	!	!	!	!LO:LB:g=original	!
4AA,</	te	8A/L	-ra-	4A/	te
.	.	8B/J	.	.	.
8.A\	A-	2c\	.	8A/	A-
.	.	.	.	8e\	-do-
16Gny\	-do-	.	.	.	.
4F\	-ra-	.	.	4A/	-ra-
4G\	-mus	4B\	-mus	4B\	-mus
!LO:TX:b:B:t=c	!	!	!	!	!
4C/	te	2c\	te	4G/	te
4c\	glo-	.	.	2e\	Glo-
4A\	-ri-	2r	.	.	.
!LO:LB:g=original	!	!	!	!	!
4B\	-fi-	.	.	2d\	-ri-
=9-	=9-	=9-	=9-	=9-	=9-
8c\L	-ca-	4r	.	.	.
8B\	.	.	.	.	.
8A\	.	4c\	Glo-	4c\	-fi-
8G\J	.	.	.	.	.
4F\	.	4c\	-ri-	4.d\	-ca-
4G\	mus	4B\	-fi-	.	.
.	.	.	.	8d\	-mus
4C/	te	8c\L	-ca-	4e\	te
.	.	8B\	.	.	.
*	*	*	*	*	*ij
4c\	Glo-	8A\	.	4e\	Glo-
.	.	8Gny\J	.	.	.
4c\	-ri-	4F/	.	4.d\	-ri-
4B\	-fi-	4G/	mus	.	.
.	.	.	.	8d\	-fi-
=10-	=10-	=10-	=10-	=10-	=10-
!	!	!LO:LB:g=original	!	!	!
4c\	-ca-	4C/	te	4e\	-ca-
8F\L	.	4c\	Glo-	2f\	.
8E\J	.	.	.	.	.
4D/	.	4.B\	-ri-	.	.
4E\	.	.	.	2e\	.
.	.	8B\	-fi-	.	.
4C/	.	4.A\	-ca-	.	.
4D/	-mus	.	.	4d\	-mus
.	.	8A\	-mus	.	.
2GG/	te	2B\	te	2d\	te
*	*	*	*	*	*Xij
=11-	=11-	=11-	=11-	=11-	=11-
*M3/1	*	*M3/1	*	*M3/1	*
1.G	Gra-	1.B	Gra-	1.d	Gra-
2G\	-ti-	2B\	-ti-	2d\	-ti-
1G	-as	1B,<	-as	1d	-as
=12-	=12-	=12-	=12-	=12-	=12-
*	*ij	*	*ij	*	*ij
!	!	!	!	!LO:LB:g=original	!
1.C	Gra-	1.c	Gra-	1.e	Gra-
2C/	-ti-	2c\	-ti-	2e\	-ti-
1C	-as	1c	-as	1e	-as
*	*Xij	*	*Xij	*	*Xij
=13-	=13-	=13-	=13-	=13-	=13-
!LO:LB:g=original	!	!	!	!	!
1.AA	a-	1.c	a-	1.e	a-
2GG#X/	-gi-	2B\	-gi-	2e\	-gi-
1AA	-mus	1A	-mus	1c	-mus
=14-	=14-	=14-	=14-	=14-	=14-
0E	ti-	0G#X	ti-	0B	ti-
1E	-bi	1G#	-bi	1B	-bi
=15-	=15-	=15-	=15-	=15-	=15-
1.C	Gra-	1.c	Gra-	1.e	Gra-
2C/	-ti-	2c\	-ti-	2e\	-ti-
1C	-as	1c	-as	1e	-as
=16-	=16-	=16-	=16-	=16-	=16-
*	*ij	*	*ij	*	*ij
!	!	!LO:LB:g=original	!	!	!
1.F	Gra-	1.c	Gra-	1.f	Gra-
2F\	-ti-	2c\	-ti-	2f\	-ti-
1F	-as	1c	-as	1f	-as
*	*Xij	*	*Xij	*	*Xij
=17-	=17-	=17-	=17-	=17-	=17-
1.C	a-	1.c	a-	1.e	a-
2BB/	-gi-	2d\	-gi-	2d\	-gi-
1C	-mus	1c	-mus	1e	-mus
=18-	=18-	=18-	=18-	=18-	=18-
0GGny	ti-	0B	ti-	0d	ti-
1GG	-bi	1B	-bi	1d	-bi
=19-	=19-	=19-	=19-	=19-	=19-
0.r	.	(1.B	pro-	0.r	.
.	.	2A/)	.	.	.
.	.	(2B\	pter	.	.
.	.	2c\)	.	.	.
=20-	=20-	=20-	=20-	=20-	=20-
!	!	!	!	!LO:LB:g=original	!
(1.D	pro-	0d	ma-	0d	pro-
2E\)	.	.	.	.	.
(2F\	-pter	1d	-gnam	1A	-pter
2G\)	.	.	.	.	.
=21-	=21-	=21-	=21-	=21-	=21-
!LO:LB:g=original	!	!	!	!	!
0.A	ma-	1r	.	0.c	ma-
*	*	*	*ij	*	*
.	.	(2A\	pro-	.	.
.	.	2B\)	.	.	.
.	.	(2c\	-pter	.	.
.	.	2d\)	.	.	.
=22-	=22-	=22-	=22-	=22-	=22-
0.E	-gnam	1.e	ma-	0.B	-gnam
.	.	4d\	.	.	.
.	.	4c\	.	.	.
.	.	2B\	.	.	.
.	.	2c\	-gnam	.	.
*	*	*	*Xij	*	*
=23-	=23-	=23-	=23-	=23-	=23-
!	!	!LO:LB:g=original	!	!	!
(1.D	pro-	0d,	glo-	1.d	glo-
2E\)	pter	.	.	4c\	.
.	.	.	.	4B\	.
2F\	ma-	1d	-ri-	2A\	.
2D/	-gnam	.	.	2B\	.
=24-	=24-	=24-	=24-	=24-	=24-
*	*	*col	*	*	*
1.A	glo-	0c	-am	1.c	.
2A\	-ri-	.	.	2d\	-ri-
1E	-am	(0c	.	1e	-am
=25-	=25-	=25-	=25-	=25-	=25-
(<1F	tu-	.	.	0.d	tu-
0G)	.	0B)	.	.	.
*	*	*Xcol	*	*	*
=26-	=26-	=26-	=26-	=26-	=26-
0.C	-am	0.c	-am	0.e	-am
=27-	=27-	=27-	=27-	=27-	=27-
*M2/1	*	*M2/1	*	*M2/1	*
*met(C)	*	*met(C|)	*	*met(C)	*
2r	.	4c\	Do-	0r	.
.	.	8c\	-mi-	.	.
.	.	8c\	-ne	.	.
4G\	Do-	8B\	De-	.	.
.	.	8A\	-us	.	.
8G\	-mi-	8B\	Rex	.	.
8G\	-ne	8Gny/	cae-	.	.
!LO:TX:t=P:problem=♯ above	!	!	!	!	!
8F#X\	De-	4A\	-le-	.	.
8E\	-us	.	.	.	.
8F#\	Rex	2d\	.	.	.
8D\	cae-	.	.	.	.
!LO:LB:g=original	!	!	!	!	!
2E\	-le-	.	.	.	.
.	.	4c#X\	.	.	.
=28-	=28-	=28-	=28-	=28-	=28-
2D\	-stis	2d\	-stis	4d\	Do-
.	.	.	.	8d\	-mi-
.	.	.	.	8d\	-ne
!	!	!LO:TX:b:B:t=pau	!	!	!
2r	.	2r	.	8c\	De-
.	.	.	.	8B\	-us
.	.	.	.	8c\	Rex
*	*	*	*	*custos:B	*
.	.	.	.	8A\	cae-
*	*	*	*ij	*	*
!	!	!	!	!LO:PB:g=original	!
2r	.	4d\	Do-	2B\	-le-
.	.	8d\	-mi-	.	.
*	*	*custos:c	*	*	*
.	.	8d\	-ne	.	.
*	*ij	*	*	*	*
!	!	!LO:LB:g=original	!	!	!
4A\	Do-	8cny\	De-	2A/	-stis
.	.	8B\	-us	.	.
8A\	mi-	8c\	Rex	.	.
!LO:N:vis=4	!	!	!	!	!
8A\	-ne	8A\	cae-	.	.
=29-	=29-	=29-	=29-	=29-	=29-
8G\	De-	4B\	-le-	1r	.
8Fny\	-us	.	.	.	.
8G\	Rex	2e\	.	.	.
8E\	cae-	.	.	.	.
2F\	-le-	.	.	.	.
.	.	4d\	.	.	.
2E\	-stis	2e\	-stis	4e\	Do-
*	*Xij	*	*Xij	*	*
.	.	.	.	8e\	-mi-
.	.	.	.	8e\	-ne
!	!	!LO:TX:b:t=pau	!	!	!
2r	.	2r	.	8d\	De-
.	.	.	.	8c\	-us
.	.	.	.	8d\	Rex
.	.	.	.	8B\	cae-
=30-	=30-	=30-	=30-	=30-	=30-
4c\	Do-	1r	.	4c\	-le-
8c\	-mi-	.	.	4C/	.
8c\	-ne	.	.	.	.
8B\	De-	.	.	2G/	-stis
8A\	-us	.	.	.	.
8B\	Rex	.	.	.	.
8A\	cae-	.	.	.	.
4A\	le-	4c\	Do-	1r	.
4A\	.	8c\	-mi-	.	.
.	.	8c\	-ne	.	.
2G\	-ſtis	8B\	De-	.	.
.	.	8A\	-us	.	.
.	.	8B\	Rex	.	.
.	.	8G/	cae-	.	.
=31-	=31-	=31-	=31-	=31-	=31-
4D/	Rex	1A	-le-	2r	.
*custos:D	*	*	*	*	*
4C/	cae-	.	.	.	.
!LO:PB:g=original	!	!	!	!	!
2D/	-le-	.	.	2.d\	De-
4GG/	-ſtis	4B\	-ſtis	.	.
2G\	De-	2B\	De-	4B\	-us
.	.	.	.	4.e\	Pa-
4E\	-us	4G/	-us	.	.
.	.	.	.	8d\	.
=32-	=32-	=32-	=32-	=32-	=32-
4.A\	Pa-	4.c\	Pa-	8c\L	.
.	.	.	.	8B\J	.
.	.	.	.	2A/	.
8G\	.	8B\	.	.	.
8F\L	.	2A/	.	.	.
8E\J	.	.	.	.	.
[4D/	.	.	.	2f\	-ter
4D/]	.	4.A/	-ter	.	.
8C/	-ter	.	.	4e\	om-
8C/	o-	8A/	o-	.	.
!	!	!LO:LB:g=original	!	!	!
4.BB/	-mni-	4.B\	-mni-	4.d\	-ni-
8BB/	-po-	8B\	-po-	8d\	-po-
=33-	=33-	=33-	=33-	=33-	=33-
!	!	!	!	!LO:LB:g=original	!
2AA/	-tens	4E/	-tens	2c\	-tens
.	.	4.A/	Do-	.	.
2r	.	.	.	2r	.
.	.	8A/	-mi-	.	.
.	.	4G#X,</	-ne	.	.
0r	.	4A/	Fi-	00r	.
.	.	4B\	-li	.	.
.	.	4c\	U-	.	.
.	.	4A/	-ni-	.	.
=34-	=34-	=34-	=34-	=34-	=34-
.	.	4B\	-ge-	.	.
.	.	4c\	.	.	.
.	.	4.d\	.	.	.
.	.	8c\	.	.	.
2r	.	2B\	.	.	.
8AA/L	Je-	4.c\	.	.	.
8BB/	.	.	.	.	.
8C/	.	.	.	.	.
8D/J	.	8c\	-ni-	.	.
=35-	=35-	=35-	=35-	=35-	=35-
8E\L	.	4B\	-te	.	.
!LO:TX:t=P:problem=♯ above	!	!	!	!	!
8F#X\	.	.	.	.	.
8G\	.	2e\	Ie-	.	.
8A\J	.	.	.	.	.
4.B\	.	.	.	.	.
.	.	4d#X\	-su	.	.
8A\J	.	.	.	.	.
4G\	.	4B\	CHri-	0r	.
!LO:TX:t=P:problem=♯ above	!	!	!	!	!
4F#X\	.	4A\	.	.	.
!LO:LB:g=original	!	!	!	!	!
4E\	.	(4.B\	-ſte	.	.
!LO:TX:t=P:problem=♯ above	!	!	!	!	!
4D#X\	.	.	.	.	.
.	.	8A\)	.	.	.
=36-	=36-	=36-	=36-	=36-	=36-
8E\L	.	4Gny/	Ie-	.	.
8Dny\	.	.	.	.	.
8C\J	.	4G/	-su	.	.
8BB/	-su	.	.	.	.
!	!	!LO:TX:b:t=P:problem=♯ below	!	!	!
(4AA/	CHri-	2F#X/	CHri-	.	.
4BB/)	.	.	.	.	.
!	!	!LO:LB:g=original	!	!	!
2E\	-ſte	1G	-ste	4.B\	Do-
.	.	.	.	8B\	-mi-
4.E\	Do-	.	.	4E/	-ne
.	.	.	.	4.e\	De-
8E\	-mi-	.	.	.	.
=37-	=37-	=37-	=37-	=37-	=37-
4AA/	-ne	2r	.	.	.
.	.	.	.	8d\J	.
4.A\	De-	.	.	4.c\	.
.	.	4r	.	.	.
8G\L	.	.	.	8B\J	.
8Fny\	.	4.A/	Do-	[4A/	.
8E\J	.	.	.	.	.
2.D/	.	.	.	4A/]	.
.	.	8A/	-mi-	.	.
.	.	4D/	-ne	4A/	-us
.	.	4dny\	DE-	4f\	A-
!LO:TX:b:t=P:problem=♯ below	!	!	!	!	!
4C#X/	-us	4e\	-us	4e\	-gnus
=38-	=38-	=38-	=38-	=38-	=38-
4D\	A-	4f\	A-	8d\L	De-
.	.	.	.	8A\J	.
4E\	-gnus	4e\	-gnus	2c\	.
!LO:N:vis=8	!	!	!	!	!
4F\	De-	2d\	De-	.	.
!LO:N:vis=8	!	!	!	!	!
4G\	.	.	.	4B\	.
4Cny,</	-i	4e\	-i	4c,<\	-i
4.C/	Fi-	4.e\	Fi-	4.c\	Fi-
8C/	-li-	8e\	-li-	8c\	-li-
4GG/	-us	4B\	-us	4d\	-us
=39-	=39-	=39-	=39-	=39-	=39-
!	!	!	!	!LO:TX:t=P:problem=♯ above	!
1AA	Pa-	[<1A	Pa-	4c#X\	Pa-
.	.	.	.	2d\	.
.	.	.	.	.	.
!	!	!	!	!LO:TX:t=P:problem=♯ above	!
.	.	.	.	4c#X\	.
1D;<	-tris	1A]	.	1d;<	-tris
=40-	=40-	=40-	=40-	=40-	=40-
*M2/1	*	*M2/1	*	*M2/1	*
*met(C)	*	*met(C)	*	*met(C|)	*
!LO:LB:g=original	!	!	!	!LO:LB:g=original	!
1D	Qui	1A	-tris	1F#X	Qui
1GG	tol-	4B\	Qui	4G/	tol-
.	.	4A\	tol[l]-	4A/	.
.	.	4G/	.	4B\	.
!	!	!LO:TX:b:t=P:problem=♯ below	!	!	!
.	.	8F#X/L	.	4cny\	.
.	.	8E/J	.	.	.
=41-	=41-	=41-	=41-	=41-	=41-
!	!	!LO:TX:b:t=P:problem=♯ below	!	!	!
2D/	-lis	2F#X/	-lis	2A,</	-lis
2BB/	pec-	2D/	pec-	2d\	pec-
2.C/	-ca-	4E/	-ca-	2c\	-ca-
!	!	!LO:TX:b:t=P:problem=♯ below	!	!	!
.	.	4F#X/	-ta	.	.
!	!	!LO:LB:g=original	!	!	!
.	.	(1G/	mun-	2B\	-ta
4C/	-ta	.	.	.	.
=42-	=42-	=42-	=42-	=42-	=42-
1D	mun-	.	.	1A	mun-
!	!	!LO:TX:b:t=P:problem=♯ below	!	!	!
.	.	2F#X/)	.	.	.
1GG	-di	2G,</	-di	1B	-di
.	.	2G/	mi-	.	.
=43-	=43-	=43-	=43-	=43-	=43-
2r	.	2C/	-se-	1r	.
2C/	mi-	4c\	-re-	.	.
.	.	4B-X\	.	.	.
2FF/	-ſe-	4A/	.	2r	.
.	.	4G/	.	.	.
4F\	-re-	4Fny/	.	2.A/	mi-
4E\	.	4G/	.	.	.
=44-	=44-	=44-	=44-	=44-	=44-
2.D/	.	1A	.	.	.
.	.	.	.	4D/	-ſe-
.	.	.	.	2.d\	-re-
4C/	.	.	.	.	.
4BB-X/	.	2B-X\	-re	.	.
4AA/	.	.	.	4c\	.
*	*	*lig	*	*	*
1GG/	.	1B-\	no-	4B-X\	.
.	.	.	.	4A/	.
=45-	=45-	=45-	=45-	=45-	=45-
.	.	.	.	2G/	.
*	*	*col	*	*	*
2FF#X/	-re	2.A\	.	2A/	-re
1GG	no-	.	.	1B-X	no-
*	*	*Xlig	*	*	*
.	.	8G/L	.	.	.
.	.	8F/J	.	.	.
*	*	*Xcol	*	*	*
.	.	2G/	.	.	.
=46-	=46-	=46-	=46-	=46-	=46-
!	!	!	!	!LO:LB:g=original	!
2D,</	-bis	2F#X,</	-bis	1A	-bis
2D/	qui	2F#/	Qui	.	.
!LO:LB:g=original	!	!	!	!	!
1G	tol-	(<1Bny	tol-	2r	.
.	.	.	.	2d\	Qui
=47-	=47-	=47-	=47-	=47-	=47-
2C/	-lis	1c)	.	1e	tol-
2E\	qui	.	.	.	.
1G	tol-	1d	-lis	2d\	-lis
.	.	.	.	2Bny\	pec-
=48-	=48-	=48-	=48-	=48-	=48-
2G\	-lis	2d\	pec-	4G/	-ca-
.	.	.	.	4A/	.
!	!	!LO:LB:g=original	!	!	!
2G\	pec-	4G/	-ca-	4B\	.
.	.	4A/	.	4c\	.
2G\	-ca-	4B\	.	2.d\	.
.	.	4c\	-ta	.	.
2F\	-ta	2.d\	mun-	.	.
.	.	.	.	4d\	-ta
=49-	=49-	=49-	=49-	=49-	=49-
1E	mun-	.	.	1e	mun-
!	!	!LO:TX:t=P:problem=♯ above	!	!	!
.	.	8c#X\L	.	.	.
.	.	8B\J	.	.	.
.	.	2c#\	.	.	.
1D	-di	1d	-di	1A	-di
=50-	=50-	=50-	=50-	=50-	=50-
*M3/1	*	*M3/1	*	*M3/1	*
1.D	su-	1.d	su-	1.A	su-
2D/	-ſci-	2d\	-ſci-	2A/	-sci-
1C#X	-pe	1e	-pe	1A	-pe
=51-	=51-	=51-	=51-	=51-	=51-
0D	de-	0d	de-	0A	de-
1BBny	-pre-	1d	-pre-	1B	-pre-
=52-	=52-	=52-	=52-	=52-	=52-
1.Cny	-ca-	1.cny	-ca-	1.G	-ca-
2C/	-ti-	2c\	-ti-	2G/	-ti-
1AA	-o-	1c	-o-	2.A/	-o-
.	.	.	.	4E/	-nem
=53-	=53-	=53-	=53-	=53-	=53-
*col	*	*col	*	*	*
!	!	!	!	!LO:LB:g=original	!
1GG	-nem	1B	-nem	0e	no-
0BB	no-	0B	no-	.	.
.	.	.	.	1d#X	.
*Xcol	*	*Xcol	*	*	*
=54-	=54-	=54-	=54-	=54-	=54-
!LO:LB:g=original	!	!	!	!	!
1E	-ſtram	1B	-ſtram	1e,	-ſtram
1E	de-	1.B	de-	1e	de-
1BB	-pre-	.	.	1dny	-pre-
*	*	*custos:G	*	*	*
.	.	2B\	-pre-	.	.
=55-	=55-	=55-	=55-	=55-	=55-
!	!	!LO:PB:g=original	!	!	!
1.C	-ca-	1.G	-ca-	1.c	-ca-
2C/	-ti-	2G/	-ti-	2c\	-ti-
1AA	-o-	1A	-o-	1c	-o-
=56-	=56-	=56-	=56-	=56-	=56-
*	*	*col	*	*	*
1GG	-nem	1B	-nem	1d	-nem
0D	no-	0A	no-	0d	no-
*	*	*Xcol	*	*	*
=57-	=57-	=57-	=57-	=57-	=57-
0GG,<	-ſtram	0.B	-ſtram	0d,	-ſtram
1G	qui	.	.	1d	qui
=58-	=58-	=58-	=58-	=58-	=58-
1c	se-	00.r	.	1e	se-
1B	-des	.	.	1d	-des
1A	ad	.	.	1c	ad
=59-	=59-	=59-	=59-	=59-	=59-
1.G	dex-	.	.	1.B	dex-
2A\	-te-	.	.	2c\	-te-
1Bn	-ram	.	.	1d	-ram
=60-	=60-	=60-	=60-	=60-	=60-
0.A	pa-	0.r	.	1d	Pa-
!	!	!	!	!LO:TX:t=P:problem=♯ above	!
.	.	.	.	2c#X\	.
!	!	!	!	!LO:TX:t=P:problem=♯ above	!
!	!	!	!	!LO:N:acc=#	!
.	.	.	.	2Bn\	.
.	.	.	.	1c#	.
=61-	=61-	=61-	=61-	=61-	=61-
!	!	!	!	!LO:LB:g=original	!
1D	-tris	0A	mi-	1d	tris
1D	mi-	.	.	1.d	mi-
1BB	-ſe-	1B	-ſe-	.	.
.	.	.	.	2d\	-ſe-
=62-	=62-	=62-	=62-	=62-	=62-
!LO:LB:g=original	!	!	!	!	!
1.C	-re-	2G/	-re-	0.cny	-re-
.	.	2F#X/	.	.	.
.	.	2E/	.	.	.
2D/	.	2F#/	.	.	.
2E\	.	2G/	.	.	.
2C/	.	2A/	.	.	.
=63-	=63-	=63-	=63-	=63-	=63-
*	*	*	*	*col	*
2G\	.	2.B\	.	1d	-re
2BB/	-re	.	.	.	.
.	.	4B\	-[re	.	.
0D	no-	0A	no-	0d	no-
*	*	*	*	*Xcol	*
=64-	=64-	=64-	=64-	=64-	=64-
0.GG	-bis	0.B	-bis]	0.d	-bis
=65-	=65-	=65-	=65-	=65-	=65-
!	!	!LO:LB:g=original	!	!	!
1.GG	Quo-	1.B	Quo-	1.d	Quo-
2GG/	-ni-	2B\	-ni-	2d\	-ni-
1GG	-am	1B	-am	1d	-am
=66-	=66-	=66-	=66-	=66-	=66-
1C	tu	1c	tu	1e	tu
1AA	so-	1c	so-	1c	so-
1D	-lus	1d	-lus	1A	-lus
=67-	=67-	=67-	=67-	=67-	=67-
1.G	san-	2d\	san-	2B\	san-
.	.	2c\	.	2c\	.
.	.	2B\	.	1.d	.
2F\	.	4c\	.	.	.
.	.	4d\	.	.	.
1E	.	1e	.	.	.
!	!	!	!	!LO:TX:t=P:problem=♯ above	!
.	.	.	.	2c#X\	.
=68-	=68-	=68-	=68-	=68-	=68-
0.D	-ctus	0.A	-ctus	0.d	-ctus
=69-	=69-	=69-	=69-	=69-	=69-
!LO:LB:g=original	!	!	!	!LO:LB:g=original	!
1D	tu	1A	tu	1d	tu
1BB	so-	1B	so-	1d	so-
1AA	-lus	1c	-lus	1e	-lus
=70-	=70-	=70-	=70-	=70-	=70-
1.E	Do-	1.B	Do-	1.e	Do-
2E\	-mi-	2B\	-mi-	2e\	-mi-
2E\	-nus	1B	-nus	1e,	-nus
2E\	tu	.	.	.	.
=71-	=71-	=71-	=71-	=71-	=71-
1.A	so-	1c	tu	1e	tu
.	.	(2c\	so-	0cny	so-
2G\	.	2B\)	.	.	.
!	!	!LO:LB:g=original	!	!	!
2F\	.	0A	.	.	.
2E\	.	.	.	.	.
=72-	=72-	=72-	=72-	=72-	=72-
1D	-lus	.	.	0d	-lus
1D	al-	1A	-lus	.	.
1E	-tiſ-	1e	al-	1c	al-
=73-	=73-	=73-	=73-	=73-	=73-
0G	.	0d	-tiſ-	1c	-tiſ-
.	.	.	.	2B\	.
.	.	.	.	2A\	.
1GG	-si-	1d	-si-	2.B\	.
.	.	.	.	4B\	-si-
=74-	=74-	=74-	=74-	=74-	=74-
*	*	*col	*	*	*
1C,<	-mus	1e	-mus	1c	-mus
2C/	Ie-	0c	Ie-	0e	Je-
2D/	.	.	.	.	.
2E\	.	.	.	.	.
2F\	.	.	.	.	.
*	*	*Xcol	*	*	*
=75-	=75-	=75-	=75-	=75-	=75-
!LO:LB:g=original	!	!	!	!	!
1G	.	0.B	-su	0.d	-su
2GG/	.	.	.	.	.
2AA/	.	.	.	.	.
2BB/	.	.	.	.	.
2C/	.	.	.	.	.
=76-	=76-	=76-	=76-	=76-	=76-
*M2/1	*	*M2/1	*	*M2/1	*
*met(C|)	*	*met(C|)	*	*met(C|)	*
2D/	.	8A/L	Ie-	2d\	Je-
.	.	8G/	.	.	.
.	.	8A/	.	.	.
.	.	8B/J	.	.	.
2C/	-su	2.c\	.	2e\	-su
!	!	!	!	!LO:LB:g=original	!
1D	CHri-	.	.	1d	CHri-
.	.	4B\	-su	.	.
.	.	2A/	CHri-	.	.
=77-	=77-	=77-	=77-	=77-	=77-
2GG/	-ſte	2B\	-ſte	1d	-ſte
4r	.	4r	.	.	.
4G\	Cum	4B\	Cum	.	.
4c\	san-	4e\	.	1r	.
4A\	-cto	4c\	san-	.	.
4.G\	spi-	8B\L	-cto	.	.
.	.	8c\J	.	.	.
.	.	2d\	spi-	.	.
8F\	.	.	.	.	.
=78-	=78-	=78-	=78-	=78-	=78-
4.E\	.	.	.	4r	.
*	*	*custos:d	*	*	*
!	!	!LO:TX:t=P:problem=♯ above	!	!	!
.	.	4c#X\	-ri-	4G/	Cum
8E\	-ri-	.	.	.	.
!	!	!LO:LB:g=original	!	!	!
4D,</	-tu	2d\	-tu	4A/	san-
4D/	in	.	.	8A/	-cto
.	.	.	.	8B\	cum
4.E\	glo-	1r	.	4.c\	san-
16E\	-ri-	.	.	8B\	-cto
16E\	-a	.	.	.	.
!LO:PB:g=original	!	!	!	!	!
4.F#X\	De-	.	.	8A\L	spi-
.	.	.	.	16B\L	.
.	.	.	.	16c\J	.
.	.	.	.	8d\	.
8F#\	-i	.	.	8c\J	.
=79-	=79-	=79-	=79-	=79-	=79-
4.G\	De-	2r	.	8B\L	.
.	.	.	.	8c\J	.
.	.	.	.	2d\	.
8G\	-i	.	.	.	.
2A\	Pa-	4r	.	.	.
!	!	!	!	!LO:TX:t=P:problem=♯ above	!
.	.	4A/	in	4c#X\	-ri-
4D,</	-tris	4.F#X/	glo-	2d\	-tu
4D/	in	.	.	.	.
.	.	16G/	-ri-	.	.
.	.	16A/	-a	.	.
4.E\	glo-	2G/	De-	2r	.
16E\	-ri-	.	.	.	.
16E\	-a	.	.	.	.
=80-	=80-	=80-	=80-	=80-	=80-
2F#X\	De-	4A/	-i	0r	.
.	.	4D/	in	.	.
2G\	-i	4.E/	glo-	.	.
.	.	16E/	-ri-	.	.
.	.	16E/	-a	.	.
2A\	Pa-	2F#X/	De-	.	.
2B\	-tris	4G,</	-i	.	.
*	*	*	*ij	*	*
.	.	4G/	in	.	.
=81-	=81-	=81-	=81-	=81-	=81-
4r	.	4.cny\	glo-	1r	.
4AA/	in	.	.	.	.
.	.	16c\	-ri-	.	.
.	.	16c\	-a	.	.
4.BB/	glo-	4.d\	De-	.	.
16BB/	-ri-	8d\	-i	.	.
*	*	*	*Xij	*	*
16BB/	-a	.	.	.	.
2C#X/	De-	2e\	Pa-	2r	.
!LO:LB:g=original	!	!LO:LB:g=original	!	!	!
4D/	-i	4A/	-tris	2A/	in
8D/L	De-	4A/	in	.	.
8Cny/J	.	.	.	.	.
=82-	=82-	=82-	=82-	=82-	=82-
2BB/	.	4.d\	glo-	4.B\	glo-
.	.	8d\	-ri-	16B\	-ri-
.	.	.	.	16B\	-a
!	!	!	!	!LO:PB:g=original	!
2AA/	i	2e\	-a	8cny\L	De-
.	.	.	.	8d\J	.
.	.	.	.	2e\	.
2BB/	Pa-	4r	.	.	.
!	!	!	!	!LO:TX:t=P:problem=♯ above	!
.	.	4B\	in	4d#X\	.
4E\	-tris	4.G/	glo-	2e\	-i
4E\	in	.	.	.	.
.	.	16A\	-ri-	.	.
.	.	16B\	-a	.	.
=83-	=83-	=83-	=83-	=83-	=83-
4.C/	glor-	2c\	De-	4r	.
.	.	.	.	4e\	in
16D/	-i-	.	.	.	.
16E/	-a	.	.	.	.
2Fny\	De-	2A\	-i	4.c\	glo-
.	.	.	.	16dny\	-ri-
.	.	.	.	16e\	-a
4D,</	-i	2A\	in	2f\	De-
*	*ij	*	*	*	*
4D/	in	.	.	.	.
4.G\	glo-	4.B\	glo-	2d\	-i
16G\	-ri-	16B\	-ri-	.	.
16G\	-a	16B\	-a	.	.
=84-	=84-	=84-	=84-	=84-	=84-
4.E\	De-	2.c\	De-	2e\	Pa-
8D/	-i	.	.	.	.
4C/	Pa-	.	.	4e\	-tri
4BB/	.	4d\	-i	2d\	A-
1C	.	1e	Pa-	.	.
.	.	.	.	8c\L	.
.	.	.	.	8B\J	.
.	.	.	.	2c\	.
=85-	=85-	=85-	=85-	=85-	=85-
4GG,</	-tris	2d\	-tris	4B\	-men
*	*Xij	*	*	*	*ij
*custos:A	*	*	*	*	*
4G\	A-	.	.	4B\	in
!LO:LB:g=original	!	!	!	!	!
4A\	.	2r	.	4c\	glo-
4F\	.	.	.	4A/	-ri-
4E\	.	2r	.	4B\	-a
8C/L	.	.	.	2c\	De-
8D/	.	.	.	.	.
8E/	.	2d\	A-	.	.
8F/J	.	.	.	.	.
4G\	.	.	.	4B\	-i
=86-	=86-	=86-	=86-	=86-	=86-
!	!	!LO:LB:g=original	!	!	!
4C/	.	4e\	.	2c\	Pa-
4AA/	.	4c\	.	.	.
4GG/	.	4B\	.	2d\	-tri
*	*	*	*	*	*Xij
2G\	.	8G/L	.	.	.
.	.	8A/	.	.	.
!	!	!	!	!LO:LB:g=original	!
.	.	8B/	.	4r	.
.	.	8c/J	.	.	.
4F#X\	.	2d\	.	4A/	A-
2E\	.	.	.	4.B\	.
!	!	!LO:TX:t=P:problem=♯ above	!	!	!
.	.	4c#X\	-men	.	.
.	.	.	.	8G/	.
=87-	=87-	=87-	=87-	=87-	=87-
2.D/	-men	4.d\	A-	4F#X/	.
.	.	.	.	8D/L	.
.	.	8cny\	.	8E/	.
.	.	8A\L	.	8F#/	.
.	.	8B\	.	8G/J	.
4C/	.	8c\	.	2A/	.
.	.	8A\J	.	.	.
2BB/	.	2d\	.	.	.
!	!	!	!	!LO:TX:b:t=P:problem=♯ below	!
.	.	.	.	4G#X/	.
*	*ij	*	*	*	*
8AA/L	A-	2c\	.	4A/	-men
8BB/	.	.	.	.	.
!	!	!	!	!LO:TX:t=P:problem=fragment pominięty	!
8C/	.	.	.	4ryy	.
8AA/J	.	.	.	.	.
=88-	=88-	=88-	=88-	=88-	=88-
4E\	.	4B\	.	4ryy	.
*	*	*	*	*	*ij
4C/	.	2e\	.	4c\	A-
4AA/	.	.	.	4.f\	.
4BB/	.	4d\	-men	.	.
.	.	.	.	16e\LL	.
.	.	.	.	16d\JJ	.
*	*	*	*ij	*	*
2.C/	.	2.c\	A-	2.e\	.
4E\	.	4B\	.	4e,<\	men
=89-	=89-	=89-	=89-	=89-	=89-
4C/	.	2A/	.	(4e\	A-
4D/	.	.	.	[4d\)	.
2GG/	-men	4B\	.	4d\]	.
.	.	4G/	.	4B\	.
!LO:LB:g=original	!	!	!	!	!
2r	.	4c\	.	8e\L	.
.	.	.	.	8d\	.
.	.	4A/	.	8c\	.
.	.	.	.	16d\L	.
.	.	.	.	16c\JJ	.
4r	.	4G/	.	4B\	-men
!	!	!	!	!LO:LB:g=original	!
4G\	A-	4B\	.	8r	.
.	.	.	.	8d\	A-
=90-	=90-	=90-	=90-	=90-	=90-
!	!	!LO:LB:g=original	!	!	!
4c\	.	2c\	.	4e\	.
4A\	.	.	.	4c\	.
2.G\	.	2d\	-men	4B\	.
.	.	.	.	8Gny/L	.
.	.	.	.	8A/	.
.	.	1r	.	8B/	.
.	.	.	.	8c/J	.
8D\L	.	.	.	2d\	.
8E\J	.	.	.	.	.
8Fny\L	.	.	.	.	.
8G\	.	.	.	.	.
8A\	.	.	.	2c\	.
8G\J	.	.	.	.	.
=91-	=91-	=91-	=91-	=91-	=91-
4F\	.	2d\	A-	.	.
4G\	.	.	.	8B\L	.
.	.	.	.	8A\J	.
4.C/	.	4e\	.	2G/	.
.	.	4c\	.	.	.
8D/	.	.	.	.	.
2.E\	.	4B\	.	8G/L	.
.	.	.	.	8A/	.
.	.	8G/L	.	8B/	.
.	.	8A/	.	8A/	.
.	.	8B/	.	8G/	.
.	.	8c/J	.	8A/J	.
4BB/	.	2d\	.	[4B\	.
=92-	=92-	=92-	=92-	=92-	=92-
*lig	*	*	*	*	*
1C	.	.	.	4B\]	.
.	.	8c\L	.	8A/L	.
.	.	8B\J	.	8G/J	.
.	.	2.c\	.	4A/	.
.	.	.	.	4G/	.
!	!	!	!	!LO:TX:b:t=P:problem=♯ below	!
1D	.	.	.	4F#X/	.
.	.	4B\	.	2G/	.
.	.	2A/	.	.	.
.	.	.	.	4F#/	.
*Xlig	*	*	*	*	*
=93-	=93-	=93-	=93-	=93-	=93-
!	!	!LO:N:vis=1	!	!	!
0GG;	-men	0B;<	-men	0G;<	-men
*	*Xij	*	*Xij	*	*Xij
!LO:LB:g=original	!	!LO:LB:g=original	!	!LO:LB:g=original	!
=-	=-	=-	=-	=-	=-
*-	*-	*-	*-	*-	*-
!!!system-decoration: [(s1,s2,s3)]
!!!RDF**kern: < = below
!!!RDF**kern: > = above
!!!ENC: Marta Chmielewska
!!!END: 2021-07-06
!!!ENC: Krzysztof Stępień
!!!END: 2021-06-24
